X:3452
T:Corri-Corri (MQ 048)
R:Danza
C:Tradicional
S:Música Tradicional Asturiana, (C) Tello & Tito. Asturies, 2001.
S:http://pagina.de/MusTradAst <telloytito@asturies.org>
N:Danza de la zona de Cabrales.
N:Es junto con el Pericote y la Danza Prima, una de las más emblemáticas de Asturias, lleva la primera parte en modo menor y la segunda en mayor.
N:Se dice de esta danza que es una de las más antiguas de Europa.
N:Es totalmente diferente al resto de las danzas existentes en la región.
O:Arenas (Cabrales)
A:Asturies
Z:Manolo Quirós 048
M:4/4
L:1/8
Q:1/4=76
K:Cm
|:z2 CD ED CE|D>D DD ED C=B,|C>E ED ED CE|D>D DD ED C=B,|C2 C6-|
[K:C]
|C2 CC DD CB,|C>E EG GG AA|G>F EE DD CB,|C>E EG GG AA|
G>F EE DD CB,|C2 C6-|C8 :|


